X:1
T:Adieu m'amour II
T:Adieu m'amour II
T:A.Agricola
C:A.Agricola
%%score 1 2 3
L:1/8
Q:1/4=140
M:4/4
K:C
V:1 treble nm="Alto" snm="A."
V:2 treble-8 nm="Tenor" snm="T"
V:3 bass nm="Bass" snm="B."
V:1
 A4 A4 | _B2 A3 G F2- | F2 ED E4 | A,3 B, C2 D2 | C2 F3 G A2- | AGFE F2 E2- | ED D4 C2 | D4 z2 A2 | %8
 A4 A4 | G4 c4 | B6 B2- | BAGF E2 B2- | BA A4 G2 | A6 G2 | A2 B2 c3 B | A2 G4 ^F2 | G2 B3 A A2- | %17
 A2 G2 A4 | z2 F4 ED | C4 F2 E2- | ED D4 ^C2 | D4 G,3 A, | _B,2 A,2 B,2 A,2- | A,2 G,F, G,2 C2- | %24
 C2 _B,2 C4 | G4 A3 G | F2 E2 D3 E | FG A4 G2 | F6 ED | C6 D2 | E4 F2 GF | ED D4 C2 | D4 x4 | %33
 z4 D4 | F6 G2 | A6 B2 | c4 z2 A2- | A2 GF D2 G2- | G2 F4 _B2- | B2 A2 G2 c2- | c2 _B4 A2- | %41
 A2 GF G4 | A4 z2 c2- | cBAG F2 E2- | E2 D2 E4 | D4 F4- | F2 GA _B4 | G6 F2 | G4 G2 A2 | G2 F4 E2 | %50
 F8 | z4 D4 | F4 z4 | z4 D4 | F6 G2 | A6 B2 | c4 z2 G2- | G2 A4 G2- | G2 F4 E2 | F3 E D2 CB, | %60
 C2 D4 C2 | D6 DE | FG A4 GF | GFED E3 D | C2 B,2 A,2 D2- | D2 C2 _B,A, D2- | D2 C2 F2 E2- | %67
 ED D4 ^C2 | D8 |] %69
V:2
 z8 | z8 | z8 | z8 | z8 | z8 | z8 | z8 | z8 | z8 | z8 | z4 z2 d2 | d4 d4 | c8 | f4 e3 d | %15
 c2 B2 A4 | z8 | z4 z2 A2 | d6 cB | A6 G2 | F2 G2 E2 E2 | D4 z2 d2 | d4 d4 | c8 | f4 e3 d | %25
 c2 B2 A4 | z8 | z4 c4 | d2 d4 cB | A4 A3 B | c3 B A2 _BA | GF G2 E2 E2 | D8- | D8 | z4 D4 | %35
 F6 G2 | A4 B4 | c4 B4 | A4 d4 | d2 c4 BA | G4 d4 | c2 BA B2 B2 | A4 z4 | z4 A3 B | c2 d4 c2 | %45
 d6 cB | A4 G4 | _B4 A4 | G3 A _B2 c2 | _B2 A2 G4 | F8- | F8 | z4 D4 | F4 z4 | z4 D4 | F6 G2 | %56
 A4 B4 | c6 B2 | A4 G4 | F6 ED | E2 D2 E4 | D4 x4 | z2 D2 F3 G | A3 B c3 B | A2 G2 F2 ED | E4 D4 | %66
 E4 D2 G2- | GFED E4 | D8 |] %69
V:3
 z4 D,4 | D,8 | D,4 C,4 | F,6 E,D, | E,2 D,4 C,_B,, | A,,2 A,3 F, G,2 | A,2 F,2 E,4 | D,4 F,4 | %8
 F,2 F,4 E,D, | E,2 C,4 B,,A,, | G,,6 G,2 | G,4 G,4 | F,4 _B,4 | A,3 G, F,2 E,2 | D,4 C,4 | %15
 F,2 G,2 D,4 | G,4 G,2 A,2 | _B,4 A,4 | D,6 E,2 | F,6 C,2 | D,2 G,,2 A,,2 A,,2 | A,2 _B,3 A, B,F, | %22
 G,2 F,2 G,2 F,2- | F,2 E,D, E,2 C,2 | D,4 C,4- | C,2 D,E, F,3 G, | A,_B, C4 B,2 | A,3 G, F,2 E,2 | %28
 D,4 D,4 | F,6 E,D, | C,4 D,2 G,,2- | G,,2 G,,2 A,,4 | D,4 F,4- | F,2 G,A, _B,4 | A,2 _B,2 A,4 | %35
 D,6 C,B,, | A,,2 F,,2 G,,4 | C,4 G,4 | A,4 G,4 | F,4 C4 | D4 z2 F,2- | F,G, A,2 E,2 G,2 | %42
 D,2 F,4 E,D, | C,4 D,2 C,2- | C,2 _B,,2 A,,4 | D,6 E,2 | F,4 G,4 | z4 D,4 | _E,3 F, G,2 C,2 | %49
 _E,2 F,2 C,4 | F,4 D,4 | F,4 _B,,4- | B,,2 A,,2 _B,,2 C,2 | D,8- | D,8- | D,6 C,B,, | %56
 A,,2 A,2 G,2 E,2- | E,2 F,3 G, E,2 | F,4 C,4 | D,6 E,2 | A,,2 _B,,2 A,,2 G,2- | %61
 G,2 F,E, F,2 _B,2 | A,4 D,4 | D,4 C,4 | z8 | G,4 G,2 _B,,2 | A,,4 D,2 C,2 | _B,,4 A,,4 | D,8 |] %69

